svgs/:curseforge:.svg

<?xml version="1.0" encoding="UTF-8" standalone="no"?>
<svg
   width="24"
   height="24"
   viewBox="0 0 0.72 0.72"
   version="1.1"
   id="svg1"
   sodipodi:docname=":curseforge:.svg"
   inkscape:version="1.4.2 (ebf0e940, 2025-05-08)"
   xmlns:inkscape="http://www.inkscape.org/namespaces/inkscape"
   xmlns:sodipodi="http://sodipodi.sourceforge.net/DTD/sodipodi-0.dtd"
   xmlns="http://www.w3.org/2000/svg"
   xmlns:svg="http://www.w3.org/2000/svg">
  <defs
     id="defs1" />
  <sodipodi:namedview
     id="namedview1"
     pagecolor="#ffffff"
     bordercolor="#000000"
     borderopacity="0.25"
     inkscape:showpageshadow="2"
     inkscape:pageopacity="0.0"
     inkscape:pagecheckerboard="0"
     inkscape:deskcolor="#d1d1d1"
     inkscape:zoom="25.150049"
     inkscape:cx="13.51886"
     inkscape:cy="14.771343"
     inkscape:window-width="1712"
     inkscape:window-height="1042"
     inkscape:window-x="1"
     inkscape:window-y="41"
     inkscape:window-maximized="0"
     inkscape:current-layer="svg1" />
  <path
     d="m 0.19014233,0.17588285 0.0119516,0.0497979 H 0.00190605 c 0,0 0.00298787,0.0169313 0.0049798,0.0179272 q 0.0069717,0.0149395 0.0169313,0.0248989 c 0.0318707,0.0368505 0.08664846,0.0517899 0.13146664,0.0597575 a 0.99595933,0.99595933 0 0 0 0.0946161,0.009959 l 0.0368505,0.0995959 h 0.0199192 l 0.0119516,0.0308747 h -0.0179274 l -0.026891,0.0906321 h 0.27787263 l -0.0278868,-0.0916277 h -0.0169315 l 0.0119517,-0.0318706 h 0.0199192 c 0,0 0.0159355,-0.10158782 0.0677252,-0.14740199 0.0497976,-0.0468101 0.11254323,-0.0547777 0.11254323,-0.0547777 v -0.0577657 z m 0.27986458,0.25197771 c -0.0129475,0.007968 -0.0278869,0.007968 -0.0378465,0.0149395 -0.006971,0.002988 -0.009959,0.0129474 -0.009959,0.0129474 a 0.03983838,0.03983838 0 0 0 -0.025895,-0.022907 c -0.009959,-0.002988 -0.0278869,-0.001992 -0.0527858,-0.0229071 a 0.04979797,0.04979797 0 0 1 -0.0169317,-0.04681 v -0.003983 q 0,-0.001992 0.001992,-0.00498 0.003983,-0.0159354 0.0278869,-0.0258949 c 0,0 -0.0109556,0.0149395 0,0.0328667 q 0.0119515,0.0169313 0.0318707,0.007968 a 0.02987877,0.02987877 0 0 0 0.009959,-0.0149395 q 0.005976,-0.0179274 -0.006971,-0.0308749 c -0.0149395,-0.0139434 -0.0179273,-0.0318707 -0.007968,-0.0438223 0,0 0.002988,0.0149395 0.0179272,0.0139434 q 0.0129475,-9.9607e-4 0.006971,-0.006971 c -0.001992,-0.00498 -0.0229071,-0.0368505 0.008964,-0.0597575 0,0 0.0199192,-0.0139434 0.0428262,-0.0119516 -0.0129475,0.001992 -0.0278869,0.008964 -0.0328666,0.0229071 v 0.001992 q -0.006971,0.0199192 0.007968,0.0418303 c 0.006971,0.009959 0.0149395,0.0179273 0.0179272,0.0318706 q -0.006971,-0.001992 -0.0109556,0.002988 a 0.01991918,0.01991918 0 0 0 -0.003983,0.0149394 q 0.002988,0.005976 0.008964,0.006971 h 0.00498 q 0.007967,-0.00498 0.005976,-0.0149395 0.005976,0.009959 0.003983,0.0179272 -0.001992,0.007968 -0.00498,0.0129475 l -0.006971,0.009959 -0.002988,0.009959 9.9606e-4,0.0119516 c 0.006971,0.009959 0.0199192,0 0.023903,-0.007968 q 0.006971,-0.0159353 -0.003983,-0.0318706 c 0,0 0.0119516,0.006971 0.0199192,0.0298788 a 0.04979797,0.04979797 0 0 1 -0.0179273,0.0517899"
     style="stroke-width:0.0298475"
     id="path1" />
</svg>

<svg width="24" height="24" viewBox="0 0 0.72 0.72"><path d="m.19.176.012.05h-.2s.003.017.005.018q.007.015.017.025C.056.305.11.32.155.329a1 1 0 0 0 .095.01l.037.099h.02l.012.03H.3L.274.56h.278L.524.468H.507L.519.436h.02S.555.334.606.288C.656.242.72.234.72.234V.176zm.28.252C.457.436.442.436.432.443.425.446.422.456.422.456A.04.04 0 0 0 .396.433C.386.43.368.43.344.41A.05.05 0 0 1 .327.363V.36L.329.354Q.333.338.356.328s-.01.015 0 .033Q.368.378.388.37a.03.03 0 0 0 .01-.015Q.404.336.391.324C.376.308.373.29.383.278c0 0 .003.015.018.014q.013 0 .007-.007C.406.281.385.25.418.226c0 0 .02-.013.042-.011C.447.217.432.224.427.238V.24Q.42.26.435.28q.012.013.018.032Q.446.311.443.316a.02.02 0 0 0-.005.015q.003.006.01.007h.004Q.46.333.458.323q.006.01.004.018T.457.354L.45.364l-.003.01.001.012c.007.01.02 0 .024-.008Q.479.362.468.346s.012.007.02.03A.05.05 0 0 1 .47.428" style="stroke-width:.0298475"/></svg>
